public/images/poses-lg/SidePlank.svg

<svg width="800" height="800" fill="none" xmlns="http://www.w3.org/2000/svg"><path d="M351.659 481.287c.468 1.417-23.964 52.528-22.98 54.186 18.092 30.382 121.458 101.649 156.018 121.225 6.718 3.808 13.069 8.191 19.068 13.045 26.364 21.325 101.746 55.915 129.784 66.7 23.975 9.222 35.479 26.357 39.729 34.34 2.299 4.315 5.141 8.342 8.728 11.663 14.116 13.073 17.882-.909 17.882-7.361 0-7.374-.579-44.301-17.787-46.758l-.921-.138c-15.479-2.317-29.567-10.184-39.859-21.969-22.835-26.154-38.438-36.45-122.494-94.643" fill="#fff"/><path d="M351.659 481.287c.468 1.417-23.964 52.528-22.98 54.186 18.092 30.382 121.458 101.649 156.018 121.225 6.718 3.808 13.069 8.191 19.068 13.045 26.364 21.325 101.746 55.915 129.784 66.7 23.975 9.222 35.479 26.357 39.729 34.34 2.299 4.315 5.141 8.342 8.728 11.663 14.116 13.073 17.882-.909 17.882-7.361 0-7.374-.579-44.301-17.787-46.758l-.921-.138c-15.479-2.317-29.567-10.184-39.859-21.969-22.835-26.154-38.438-36.45-122.494-94.643" stroke="#000" stroke-width="5" stroke-miterlimit="10"/><path d="M351.659 481.287c.468 1.417-23.964 52.528-22.98 54.186 18.092 30.382 121.458 101.649 156.018 121.225 6.718 3.808 13.069 8.191 19.068 13.045 26.364 21.325 101.746 55.915 129.784 66.7 23.975 9.222 35.479 26.357 39.729 34.34 2.299 4.315 5.141 8.342 8.728 11.663 14.116 13.073 17.882-.909 17.882-7.361 0-7.374-.579-44.301-17.787-46.758l-.921-.138c-15.479-2.317-29.567-10.184-39.859-21.969-22.835-26.154-38.438-36.45-122.494-94.643" stroke="#000" stroke-width="5" stroke-miterlimit="10"/><path d="M328.679 534.165c1.013 0 33.344-91.033 34.417-90.959 47.683 3.33 148.768 81.971 178.268 113.468 5.626 6.012 13.984 14.242 20.947 18.639 29.873 18.865 89.283 84.335 111.189 103.972 20.035 17.963 23.137 18.802 42.382 21.187.877.106 1.73.399 2.562.703 27.861 10.16 13.643 20.247 6.8 22.672-6.953 2.462-37.23 14.473-45.292-.927-5.472-10.448-5.891-13.869-9.486-16.966-1.548-1.33-10.424-6.268-12.33-7.003-51.409-19.708-139.308-87.372-139.308-87.372l-89.729-64.687" fill="#fff"/><path d="M328.679 534.165c1.013 0 33.344-91.033 34.417-90.959 47.683 3.33 148.768 81.971 178.268 113.468 5.626 6.012 13.984 14.242 20.947 18.639 29.873 18.865 89.283 84.335 111.189 103.972 20.035 17.963 23.137 18.802 42.382 21.187.877.106 1.73.399 2.562.703 27.861 10.16 13.643 20.247 6.8 22.672-6.953 2.462-37.23 14.473-45.292-.927-5.472-10.448-5.891-13.869-9.486-16.966-1.548-1.33-10.424-6.268-12.33-7.003-51.409-19.708-139.308-87.372-139.308-87.372l-89.729-64.687" stroke="#000" stroke-width="5" stroke-miterlimit="10"/><path d="M328.679 534.165c1.013 0 33.344-91.033 34.417-90.959 47.683 3.33 148.768 81.971 178.268 113.468 5.626 6.012 13.984 14.242 20.947 18.639 29.873 18.865 89.283 84.335 111.189 103.972 20.035 17.963 23.137 18.802 42.382 21.187.877.106 1.73.399 2.562.703 27.861 10.16 13.643 20.247 6.8 22.672-6.953 2.462-37.23 14.473-45.292-.927-5.472-10.448-5.891-13.869-9.486-16.966-1.548-1.33-10.424-6.268-12.33-7.003-51.409-19.708-139.308-87.372-139.308-87.372l-89.729-64.687" stroke="#000" stroke-width="5" stroke-miterlimit="10"/><path d="M279.513 421.082c-9.833-4.917-31.958-12.292-34.416-17.208-2.458-4.916 0-83.583-2.458-103.249-2.458-19.666-9.834-68.833-19.667-95.875-9.833-27.041-19.667-54.083-22.125-73.75-2.458-19.667 4.787-59-19.666-59-34.547 0 2.458 49.167 4.916 66.375s14.75 86.042 19.667 108.167c4.916 22.124 7.375 27.041 4.916 59-2.458 31.958-14.75 115.541-14.75 115.541l29.499 7.375 49.167 7.374 4.917-14.75Z" fill="#fff" stroke="#000" stroke-width="5" stroke-miterlimit="10"/><path d="M279.513 421.082c-9.833-4.917-31.958-12.292-34.416-17.208-2.458-4.916 0-83.583-2.458-103.249-2.458-19.666-9.834-68.833-19.667-95.875-9.833-27.041-19.667-54.083-22.125-73.75-2.458-19.667 4.787-59-19.666-59-34.547 0 2.458 49.167 4.916 66.375s14.75 86.042 19.667 108.167c4.916 22.124 7.375 27.041 4.916 59-2.458 31.958-14.75 115.541-14.75 115.541l29.499 7.375 49.167 7.374 4.917-14.75Z" stroke="#000" stroke-width="5" stroke-miterlimit="10"/><path d="M171.347 494.831c-2.459 19.667 4.916 56.541 7.375 78.667 2.458 22.124 7.375 44.25 7.375 66.376 0 22.124-7.375 115.541-12.291 122.916-4.918 7.374-12.293 7.374-24.584 12.29-12.292 4.918-22.125 4.918-27.041 9.835-4.917 4.916 0 4.916 7.375 4.916s44.25 4.917 54.083 0c9.833-4.916 14.75-24.582 24.583-73.749 9.833-49.167 14.75-115.542 14.75-142.584v-36.876l7.376-29.5-17.209-14.75-34.416-2.457-7.376 4.916Z" fill="#fff" stroke="#000" stroke-width="5" stroke-miterlimit="10"/><path d="M171.347 494.831c-2.459 19.667 4.916 56.541 7.375 78.667 2.458 22.124 7.375 44.25 7.375 66.376 0 22.124-7.375 115.541-12.291 122.916-4.918 7.374-12.293 7.374-24.584 12.29-12.292 4.918-22.125 4.918-27.041 9.835-4.917 4.916 0 4.916 7.375 4.916s44.25 4.917 54.083 0c9.833-4.916 14.75-24.582 24.583-73.749 9.833-49.167 14.75-115.542 14.75-142.584v-36.876l7.376-29.5-17.209-14.75-34.416-2.457-7.376 4.916Z" stroke="#000" stroke-width="5" stroke-miterlimit="10"/><path d="M363.096 443.207c-17.209-2.457 0 0-39.334-7.374-15.47-2.9-73.75-27.041-73.75-27.041s4.917 12.292-17.208 14.75c-21.99 2.444-34.417-14.75-34.417-14.75s-2.458 19.668-9.833 22.125c-7.375 2.458-49.167 9.833-61.459 4.916-12.291-4.916-14.751 39.334-14.751 39.334s54.083-12.293 61.46 0c0 0 2.458 2.458 0 9.833-2.459 7.375-2.459 9.834-2.459 9.834s22.125-4.917 36.876 4.917c14.75 9.834 14.75 29.499 14.75 34.417 0 0 16.697-3.589 39.334-2.458 49.167 2.458 29.499 0 66.375 2.458 24.686-24.561 27.795-53.362 34.416-90.961Z" fill="#fff" stroke="#000" stroke-width="5" stroke-miterlimit="10"/><path d="M363.096 443.207c-17.209-2.457 0 0-39.334-7.374-15.47-2.9-73.75-27.041-73.75-27.041s4.917 12.292-17.208 14.75c-21.99 2.444-34.417-14.75-34.417-14.75s-2.458 19.668-9.833 22.125c-7.375 2.458-49.167 9.833-61.459 4.916-12.291-4.916-14.751 39.334-14.751 39.334s54.083-12.293 61.46 0c0 0 2.458 2.458 0 9.833-2.459 7.375-2.459 9.834-2.459 9.834s22.125-4.917 36.876 4.917c14.75 9.834 14.75 29.499 14.75 34.417 0 0 16.697-3.589 39.334-2.458 49.167 2.458 29.499 0 66.375 2.458 24.686-24.561 27.795-53.362 34.416-90.961Z" stroke="#000" stroke-width="5" stroke-miterlimit="10"/><path d="M118.924 470.914c-8.724 1.766-14.827-4.118-24.487-5.702-15.343-2.524-23.925-25.007-17.6-41.192 8.358-21.364 86.491 2.986 83.715 16.038-1.646 7.73-12.392 19.286-28.02 25.134-5.025 1.883-13.608 5.722-13.608 5.722Z" fill="#fff" stroke="#000" stroke-width="5" stroke-miterlimit="10"/><path d="M118.924 470.914c-8.724 1.766-14.827-4.118-24.487-5.702-15.343-2.524-23.925-25.007-17.6-41.192 8.358-21.364 86.491 2.986 83.715 16.038-1.646 7.73-12.392 19.286-28.02 25.134-5.025 1.883-13.608 5.722-13.608 5.722Z" stroke="#000" stroke-width="5" stroke-miterlimit="10"/><path d="M88.888 417.878c13.557 4.746 34.957 22.861 24.877 38.524-11.336 17.605 2.748 13.522 6.87 13.2 4.121-.322 14.035-7.438 14.438-5.181.401 2.256-18.68 23.433-39.211 19.602-20.53-3.83-27.373-14.358-30.09-26.548-2.718-12.187 1.887-29.172 11.507-37.288 9.617-8.122 11.61-2.309 11.61-2.309Z" fill="#100200" stroke="#000" stroke-width="5" stroke-miterlimit="10"/><path d="M195.008 425.077c10.755 10.755 12.407 23.845 5.838 35.337-9.833 17.21-25.971 19.349-25.971 19.349" stroke="#000" stroke-width="5" stroke-miterlimit="10"/><path d="M627.66 734.106s18.346-6.036 18.022-23.35Z" fill="#fff"/><path d="M627.66 734.106s18.346-6.036 18.022-23.35" stroke="#000" stroke-width="5" stroke-miterlimit="10"/><path d="M627.66 734.106s18.346-6.036 18.022-23.35" stroke="#000" stroke-width="5" stroke-miterlimit="10"/><path d="M653.897 697.251s18.354-6.034 15.904-21.375Z" fill="#fff"/><path d="M653.897 697.251s18.354-6.034 15.904-21.375" stroke="#000" stroke-width="5" stroke-miterlimit="10"/><path d="M653.897 697.251s18.354-6.034 15.904-21.375" stroke="#000" stroke-width="5" stroke-miterlimit="10"/></svg>

<svg width="800" height="800" viewBox="0 0 800 800" fill="none" xmlns="http://www.w3.org/2000/svg">
<path d="M351.659 481.287C352.127 482.704 327.695 533.815 328.679 535.473C346.771 565.855 450.137 637.122 484.697 656.698C491.415 660.506 497.766 664.889 503.765 669.743C530.129 691.068 605.511 725.658 633.549 736.443C657.524 745.665 669.028 762.8 673.278 770.783C675.577 775.098 678.419 779.125 682.006 782.446C696.122 795.519 699.888 781.537 699.888 775.085C699.888 767.711 699.309 730.784 682.101 728.327C681.792 728.281 681.483 728.235 681.18 728.189C665.701 725.872 651.613 718.005 641.321 706.22C618.486 680.066 602.883 669.77 518.827 611.577" fill="white"/>
<path d="M351.659 481.287C352.127 482.704 327.695 533.815 328.679 535.473C346.771 565.855 450.137 637.122 484.697 656.698C491.415 660.506 497.766 664.889 503.765 669.743C530.129 691.068 605.511 725.658 633.549 736.443C657.524 745.665 669.028 762.8 673.278 770.783C675.577 775.098 678.419 779.125 682.006 782.446C696.122 795.519 699.888 781.537 699.888 775.085C699.888 767.711 699.309 730.784 682.101 728.327C681.792 728.281 681.483 728.235 681.18 728.189C665.701 725.872 651.613 718.005 641.321 706.22C618.486 680.066 602.883 669.77 518.827 611.577" stroke="black" stroke-width="5" stroke-miterlimit="10"/>
<path d="M351.659 481.287C352.127 482.704 327.695 533.815 328.679 535.473C346.771 565.855 450.137 637.122 484.697 656.698C491.415 660.506 497.766 664.889 503.765 669.743C530.129 691.068 605.511 725.658 633.549 736.443C657.524 745.665 669.028 762.8 673.278 770.783C675.577 775.098 678.419 779.125 682.006 782.446C696.122 795.519 699.888 781.537 699.888 775.085C699.888 767.711 699.309 730.784 682.101 728.327C681.792 728.281 681.483 728.235 681.18 728.189C665.701 725.872 651.613 718.005 641.321 706.22C618.486 680.066 602.883 669.77 518.827 611.577" stroke="black" stroke-width="5" stroke-miterlimit="10"/>
<path d="M328.679 534.165C329.692 534.165 362.023 443.132 363.096 443.206C410.779 446.536 511.864 525.177 541.364 556.674C546.99 562.686 555.348 570.916 562.311 575.313C592.184 594.178 651.594 659.648 673.5 679.285C693.535 697.248 696.637 698.087 715.882 700.472C716.759 700.578 717.612 700.871 718.444 701.175C746.305 711.335 732.087 721.422 725.244 723.847C718.291 726.309 688.014 738.32 679.952 722.92C674.48 712.472 674.061 709.051 670.466 705.954C668.918 704.624 660.042 699.686 658.136 698.951C606.727 679.243 518.828 611.579 518.828 611.579L429.099 546.892" fill="white"/>
<path d="M328.679 534.165C329.692 534.165 362.023 443.132 363.096 443.206C410.779 446.536 511.864 525.177 541.364 556.674C546.99 562.686 555.348 570.916 562.311 575.313C592.184 594.178 651.594 659.648 673.5 679.285C693.535 697.248 696.637 698.087 715.882 700.472C716.759 700.578 717.612 700.871 718.444 701.175C746.305 711.335 732.087 721.422 725.244 723.847C718.291 726.309 688.014 738.32 679.952 722.92C674.48 712.472 674.061 709.051 670.466 705.954C668.918 704.624 660.042 699.686 658.136 698.951C606.727 679.243 518.828 611.579 518.828 611.579L429.099 546.892" stroke="black" stroke-width="5" stroke-miterlimit="10"/>
<path d="M328.679 534.165C329.692 534.165 362.023 443.132 363.096 443.206C410.779 446.536 511.864 525.177 541.364 556.674C546.99 562.686 555.348 570.916 562.311 575.313C592.184 594.178 651.594 659.648 673.5 679.285C693.535 697.248 696.637 698.087 715.882 700.472C716.759 700.578 717.612 700.871 718.444 701.175C746.305 711.335 732.087 721.422 725.244 723.847C718.291 726.309 688.014 738.32 679.952 722.92C674.48 712.472 674.061 709.051 670.466 705.954C668.918 704.624 660.042 699.686 658.136 698.951C606.727 679.243 518.828 611.579 518.828 611.579L429.099 546.892" stroke="black" stroke-width="5" stroke-miterlimit="10"/>
<path d="M279.513 421.082C269.68 416.165 247.555 408.79 245.097 403.874C242.639 398.958 245.097 320.291 242.639 300.625C240.181 280.959 232.805 231.792 222.972 204.75C213.139 177.709 203.305 150.667 200.847 131C198.389 111.333 205.634 72 181.181 72C146.634 72 183.639 121.167 186.097 138.375C188.555 155.583 200.847 224.417 205.764 246.542C210.68 268.666 213.139 273.583 210.68 305.542C208.222 337.5 195.93 421.083 195.93 421.083L225.429 428.458L274.596 435.832L279.513 421.082Z" fill="white" stroke="black" stroke-width="5" stroke-miterlimit="10"/>
<path d="M279.513 421.082C269.68 416.165 247.555 408.79 245.097 403.874C242.639 398.958 245.097 320.291 242.639 300.625C240.181 280.959 232.805 231.792 222.972 204.75C213.139 177.709 203.305 150.667 200.847 131C198.389 111.333 205.634 72 181.181 72C146.634 72 183.639 121.167 186.097 138.375C188.555 155.583 200.847 224.417 205.764 246.542C210.68 268.666 213.139 273.583 210.68 305.542C208.222 337.5 195.93 421.083 195.93 421.083L225.429 428.458L274.596 435.832L279.513 421.082Z" stroke="black" stroke-width="5" stroke-miterlimit="10"/>
<path d="M171.347 494.831C168.888 514.498 176.263 551.372 178.722 573.498C181.18 595.622 186.097 617.748 186.097 639.874C186.097 661.998 178.722 755.415 173.806 762.79C168.888 770.164 161.513 770.164 149.222 775.08C136.93 779.998 127.097 779.998 122.181 784.915C117.264 789.831 122.181 789.831 129.556 789.831C136.931 789.831 173.806 794.748 183.639 789.831C193.472 784.915 198.389 765.249 208.222 716.082C218.055 666.915 222.972 600.54 222.972 573.498V536.622L230.348 507.122L213.139 492.372L178.723 489.915L171.347 494.831Z" fill="white" stroke="black" stroke-width="5" stroke-miterlimit="10"/>
<path d="M171.347 494.831C168.888 514.498 176.263 551.372 178.722 573.498C181.18 595.622 186.097 617.748 186.097 639.874C186.097 661.998 178.722 755.415 173.806 762.79C168.888 770.164 161.513 770.164 149.222 775.08C136.93 779.998 127.097 779.998 122.181 784.915C117.264 789.831 122.181 789.831 129.556 789.831C136.931 789.831 173.806 794.748 183.639 789.831C193.472 784.915 198.389 765.249 208.222 716.082C218.055 666.915 222.972 600.54 222.972 573.498V536.622L230.348 507.122L213.139 492.372L178.723 489.915L171.347 494.831Z" stroke="black" stroke-width="5" stroke-miterlimit="10"/>
<path d="M363.096 443.207C345.887 440.75 363.096 443.207 323.762 435.833C308.292 432.933 250.012 408.792 250.012 408.792C250.012 408.792 254.929 421.084 232.804 423.542C210.814 425.986 198.387 408.792 198.387 408.792C198.387 408.792 195.929 428.46 188.554 430.917C181.179 433.375 139.387 440.75 127.095 435.833C114.804 430.917 112.344 475.167 112.344 475.167C112.344 475.167 166.427 462.874 173.804 475.167C173.804 475.167 176.262 477.625 173.804 485C171.345 492.375 171.345 494.834 171.345 494.834C171.345 494.834 193.47 489.917 208.221 499.751C222.971 509.585 222.971 529.25 222.971 534.168C222.971 534.168 239.668 530.579 262.305 531.71C311.472 534.168 291.804 531.71 328.68 534.168C353.366 509.607 356.475 480.806 363.096 443.207Z" fill="white" stroke="black" stroke-width="5" stroke-miterlimit="10"/>
<path d="M363.096 443.207C345.887 440.75 363.096 443.207 323.762 435.833C308.292 432.933 250.012 408.792 250.012 408.792C250.012 408.792 254.929 421.084 232.804 423.542C210.814 425.986 198.387 408.792 198.387 408.792C198.387 408.792 195.929 428.46 188.554 430.917C181.179 433.375 139.387 440.75 127.095 435.833C114.804 430.917 112.344 475.167 112.344 475.167C112.344 475.167 166.427 462.874 173.804 475.167C173.804 475.167 176.262 477.625 173.804 485C171.345 492.375 171.345 494.834 171.345 494.834C171.345 494.834 193.47 489.917 208.221 499.751C222.971 509.585 222.971 529.25 222.971 534.168C222.971 534.168 239.668 530.579 262.305 531.71C311.472 534.168 291.804 531.71 328.68 534.168C353.366 509.607 356.475 480.806 363.096 443.207Z" stroke="black" stroke-width="5" stroke-miterlimit="10"/>
<path d="M118.924 470.914C110.2 472.68 104.097 466.796 94.4373 465.212C79.0938 462.688 70.5116 440.205 76.8374 424.02C85.1946 402.656 163.328 427.006 160.552 440.058C158.906 447.788 148.16 459.344 132.532 465.192C127.507 467.075 118.924 470.914 118.924 470.914Z" fill="white" stroke="black" stroke-width="5" stroke-miterlimit="10"/>
<path d="M118.924 470.914C110.2 472.68 104.097 466.796 94.4373 465.212C79.0938 462.688 70.5116 440.205 76.8374 424.02C85.1946 402.656 163.328 427.006 160.552 440.058C158.906 447.788 148.16 459.344 132.532 465.192C127.507 467.075 118.924 470.914 118.924 470.914Z" stroke="black" stroke-width="5" stroke-miterlimit="10"/>
<path d="M88.8883 417.878C102.445 422.624 123.845 440.739 113.765 456.402C102.429 474.007 116.513 469.924 120.635 469.602C124.756 469.28 134.67 462.164 135.073 464.421C135.474 466.677 116.393 487.854 95.862 484.023C75.3315 480.193 68.4893 469.665 65.7721 457.475C63.0539 445.288 67.6592 428.303 77.279 420.187C86.8959 412.065 88.8883 417.878 88.8883 417.878Z" fill="#100200" stroke="black" stroke-width="5" stroke-miterlimit="10"/>
<path d="M195.008 425.077C205.763 435.832 207.415 448.922 200.846 460.414C191.013 477.624 174.875 479.763 174.875 479.763" stroke="black" stroke-width="5" stroke-miterlimit="10"/>
<path d="M627.66 734.106C627.66 734.106 646.006 728.07 645.682 710.756Z" fill="white"/>
<path d="M627.66 734.106C627.66 734.106 646.006 728.07 645.682 710.756" stroke="black" stroke-width="5" stroke-miterlimit="10"/>
<path d="M627.66 734.106C627.66 734.106 646.006 728.07 645.682 710.756" stroke="black" stroke-width="5" stroke-miterlimit="10"/>
<path d="M653.897 697.251C653.897 697.251 672.251 691.217 669.801 675.876Z" fill="white"/>
<path d="M653.897 697.251C653.897 697.251 672.251 691.217 669.801 675.876" stroke="black" stroke-width="5" stroke-miterlimit="10"/>
<path d="M653.897 697.251C653.897 697.251 672.251 691.217 669.801 675.876" stroke="black" stroke-width="5" stroke-miterlimit="10"/>
</svg>
